annanekrasova/img/titles/order.svg

<svg width="157" height="157" viewBox="0 0 157 157" fill="none" xmlns="http://www.w3.org/2000/svg">
<path d="M85.3429 8.43784C84.7184 11.8918 86.38 13.7288 89.586 14.3086C92.5795 14.8499 94.5152 13.7548 94.9188 11.523C95.2647 9.61006 94.3977 8.7399 92.8612 8.1328L92.9349 7.72541C94.5739 7.7657 95.5328 7.11596 95.8082 5.59267C96.1542 3.67969 94.9016 2.00813 91.9082 1.46683C88.7022 0.88709 86.6796 2.05786 86.1767 4.83876L87.6291 5.10141C87.9975 3.06444 89.1865 2.2551 91.684 2.70672C93.9512 3.1167 94.564 4.1787 94.3206 5.52486C94.0771 6.87103 93.2388 7.35966 91.7332 7.0874L89.9974 6.77351L89.7732 8.0134L91.509 8.32729C93.0146 8.59955 93.8027 9.40056 93.5048 11.0478C93.2005 12.7306 92.0774 13.4787 89.8102 13.0687C87.3127 12.617 86.3053 11.4105 86.7954 8.70049L85.3429 8.43784Z" fill="#3E3E3E"/>
<path d="M106.668 19.4982L108.013 20.0611L109.143 6.77743L106.354 5.60996L97.6687 15.7317L99.0303 16.3015L102.409 12.3302L107.109 14.2969L106.668 19.4982ZM103.278 11.3277L107.389 6.49221L107.771 6.65204L107.23 12.9817L103.278 11.3277Z" fill="#3E3E3E"/>
<path d="M119.396 27.4935L118.394 18.5988L124.151 16.8628L125.932 18.1167L126.658 17.0865L124.892 15.8429C124.421 15.5113 123.962 15.4747 123.438 15.6561L117.389 17.4945L117.006 17.225L120.27 12.589L119.063 11.7392L111.758 22.1152L112.964 22.9649L116.26 18.2847L116.584 18.5127C116.731 18.6163 116.874 18.6949 117.037 18.744L117.939 26.4676L119.396 27.4935Z" fill="#3E3E3E"/>
<path d="M128.742 36.6718L129.728 37.7453L136.308 26.1503L134.262 23.9237L122.141 29.4881L123.139 30.575L127.869 28.3798L131.316 32.1307L128.742 36.6718ZM129.077 27.8321L134.834 25.1581L135.114 25.4629L131.976 30.9866L129.077 27.8321Z" fill="#3E3E3E"/>
<path d="M136.185 38.3297C133.142 40.0787 132.809 42.5332 134.432 45.3579C135.948 47.9953 138.033 48.7694 139.999 47.6393C141.685 46.6706 141.791 45.4469 141.265 43.8808L141.624 43.6746C142.65 44.9536 143.764 45.2678 145.107 44.4965C146.792 43.5278 147.263 41.4927 145.747 38.8553C144.123 36.0305 141.924 35.2389 139.474 36.6471L140.21 37.9268C142.004 36.8953 143.39 37.2826 144.654 39.4831C145.802 41.4807 145.385 42.6338 144.199 43.3154C143.013 43.9971 142.099 43.6712 141.337 42.3446L140.458 40.8152L139.366 41.443L140.245 42.9725C141.007 44.299 140.903 45.4178 139.451 46.2519C137.969 47.104 136.673 46.7276 135.525 44.73C134.26 42.5296 134.533 40.9817 136.921 39.6094L136.185 38.3297Z" fill="#3E3E3E"/>
<path d="M141.441 61.7605L141.88 63.1507L152.749 55.4303L151.838 52.5469L138.501 52.4581L138.946 53.8655L144.16 53.8786L145.695 58.7358L141.441 61.7605ZM145.486 53.8936L151.833 53.9074L151.958 54.3021L146.777 57.9785L145.486 53.8936Z" fill="#3E3E3E"/>
<path d="M156.058 72.7007L154.769 62.5038L153.519 62.6617L154.074 67.0548L142.734 68.4873L142.917 69.9338L154.257 68.5013L154.808 72.8586L156.058 72.7007Z" fill="#3E3E3E"/>
<path d="M156.198 80.7054L156.315 79.2341L143.666 78.2221L143.358 82.0618C143.117 85.0762 143.789 87.0621 146.911 87.3119C150.051 87.5631 151.048 85.7107 151.289 82.6963L151.479 80.3279L156.198 80.7054ZM144.804 79.7939L150.223 80.2274L150.033 82.5958C149.855 84.8207 149.343 86.0257 147.029 85.8406C144.732 85.6568 144.436 84.3872 144.614 82.1623L144.804 79.7939Z" fill="#3E3E3E"/>
<path d="M146.448 100.732C143.055 99.237 139.576 100.124 138.074 103.533C136.767 106.498 137.69 109.226 140.42 110.842L141.015 109.491C138.908 108.248 138.225 106.314 139.227 104.041C140.417 101.34 143.036 100.842 145.853 102.083C148.653 103.317 150.053 105.586 148.863 108.287C147.861 110.56 145.991 111.369 143.651 110.652L143.056 112.003C146.074 112.92 148.709 111.76 150.016 108.795C151.518 105.386 149.825 102.22 146.448 100.732Z" fill="#3E3E3E"/>
<path d="M128.587 119.583L127.716 120.753L140.336 125.052L142.141 122.626L134.412 111.757L133.53 112.941L136.57 117.178L133.528 121.264L128.587 119.583ZM137.334 118.262L141.035 123.419L140.788 123.751L134.776 121.699L137.334 118.262Z" fill="#3E3E3E"/>
<path d="M129.695 142.085L130.619 141.311C129.775 140.303 129.727 139.545 130.61 138.805C131.493 138.066 132.245 138.234 133.089 139.241L134.013 138.467C132.834 137.059 131.211 136.776 129.859 137.909C128.521 139.03 128.516 140.678 129.695 142.085ZM116.6 130.913L124.75 140.64L127.026 138.732L123.999 125.253L124.316 124.987L124.819 125.952L132.021 134.547L133.138 133.611L124.988 123.884L122.712 125.791L125.753 139.259L125.436 139.525L124.933 138.56L117.731 129.965L116.6 130.913Z" fill="#3E3E3E"/>
<path d="M109.775 149.318L118.932 144.65L118.36 143.527L114.415 145.538L109.224 135.355L107.925 136.017L113.116 146.201L109.203 148.195L109.775 149.318Z" fill="#3E3E3E"/>
<path d="M93.4097 144.973L92.2166 145.149C92.3736 146.217 91.9037 146.486 91.4229 146.557C90.1228 146.748 88.7381 145.496 87.0285 145.747C86.0312 145.894 85.0265 146.733 85.2908 148.531L86.484 148.356C86.327 147.288 86.7942 147.001 87.275 146.93C88.5573 146.741 89.9598 147.991 91.6695 147.74C92.6489 147.596 93.6741 146.772 93.4097 144.973Z" fill="#3E3E3E"/>
<path d="M71.6204 147.802C72.2456 144.348 70.5843 142.511 67.3784 141.931C64.385 141.389 62.4491 142.483 62.0451 144.715C61.6988 146.628 62.5657 147.498 64.1021 148.106L64.0283 148.513C62.3894 148.472 61.4303 149.122 61.1546 150.645C60.8083 152.558 62.0606 154.23 65.054 154.772C68.2599 155.352 70.2827 154.182 70.786 151.401L69.3336 151.138C68.9649 153.175 67.7758 153.984 65.2784 153.532C63.0112 153.122 62.3986 152.059 62.6423 150.713C62.8859 149.367 63.7243 148.879 65.2299 149.151L66.9657 149.465L67.1901 148.226L65.4543 147.911C63.9488 147.639 63.1609 146.838 63.459 145.191C63.7636 143.508 64.8868 142.76 67.1539 143.17C69.6514 143.622 70.6585 144.829 70.168 147.539L71.6204 147.802Z" fill="#3E3E3E"/>
<path d="M50.3087 136.742L48.9637 136.179L47.8338 149.463L50.6233 150.631L59.3083 140.509L57.9468 139.939L54.5676 143.91L49.8685 141.944L50.3087 136.742ZM53.6992 144.913L49.5876 149.748L49.2057 149.588L49.7474 143.259L53.6992 144.913Z" fill="#3E3E3E"/>
<path d="M37.5816 128.747L38.5834 137.641L32.8261 139.377L31.0452 138.124L30.3198 139.154L32.0859 140.397C32.5569 140.729 33.0154 140.766 33.5394 140.584L39.589 138.746L39.9716 139.015L36.7073 143.651L37.9141 144.501L45.22 134.125L44.0132 133.275L40.7178 137.956L40.394 137.728C40.2468 137.624 40.104 137.545 39.9404 137.496L39.0386 129.773L37.5816 128.747Z" fill="#3E3E3E"/>
<path d="M28.2235 119.563L27.237 118.489L20.6577 130.084L22.7038 132.311L34.8246 126.746L33.8259 125.659L29.0961 127.855L25.6494 124.104L28.2235 119.563ZM27.8882 128.402L22.1317 131.076L21.8516 130.771L24.9895 125.248L27.8882 128.402Z" fill="#3E3E3E"/>
<path d="M20.8585 117.89C23.8995 116.137 24.2296 113.682 22.6026 110.86C21.0834 108.224 18.9975 107.453 17.0325 108.586C15.3483 109.556 15.2435 110.78 15.7718 112.346L15.4131 112.552C14.3858 111.275 13.2705 110.962 11.9294 111.735C10.2452 112.706 9.77724 114.741 11.2964 117.377C12.9234 120.2 15.1233 120.988 17.5717 119.577L16.8346 118.298C15.0412 119.332 13.6555 118.947 12.388 116.748C11.2374 114.752 11.6528 113.598 12.838 112.915C14.0232 112.232 14.9376 112.556 15.7017 113.882L16.5826 115.41L17.6742 114.781L16.7933 113.253C16.0292 111.927 16.1322 110.808 17.5825 109.972C19.064 109.118 20.3603 109.493 21.511 111.489C22.7784 113.688 22.5074 115.236 20.1214 116.611L20.8585 117.89Z" fill="#3E3E3E"/>
<path d="M15.6046 94.4484L15.1655 93.0581L4.29498 100.776L5.2056 103.659L18.5424 103.752L18.0979 102.344L12.8835 102.33L11.3496 97.472L15.6046 94.4484ZM11.5574 102.314L5.21012 102.299L5.08545 101.904L10.2673 98.2291L11.5574 102.314Z" fill="#3E3E3E"/>
<path d="M0.919442 83.5398L2.20762 93.7367L3.45768 93.5788L2.90271 89.1857L14.2426 87.7531L14.0598 86.3066L2.71997 87.7392L2.16951 83.3818L0.919442 83.5398Z" fill="#3E3E3E"/>
<path d="M0.824463 75.6303L0.713537 77.1022L13.3677 78.0559L13.6571 74.2148C13.8844 71.1993 13.2035 69.2165 10.0803 68.9811C6.93925 68.7444 5.9509 70.6014 5.72364 73.6168L5.54508 75.9861L0.824463 75.6303ZM12.2221 76.4893L6.80151 76.0808L6.98008 73.7115C7.14782 71.4858 7.65399 70.2785 9.96942 70.453C12.2669 70.6261 12.5684 71.8944 12.4007 74.1201L12.2221 76.4893Z" fill="#3E3E3E"/>
<path d="M10.5309 55.4999C13.9238 56.9957 17.4028 56.1098 18.9058 52.7004C20.2128 49.7357 19.2908 47.008 16.5609 45.3914L15.9655 46.742C18.0729 47.9858 18.7549 49.9192 17.7529 52.1921C16.5621 54.8933 13.9428 55.391 11.1263 54.1494C8.32632 52.915 6.92683 50.6456 8.11763 47.9445C9.11964 45.6715 10.9905 44.8636 13.3302 45.5803L13.9256 44.2297C10.9073 43.3122 8.27166 44.4715 6.96469 47.4362C5.46168 50.8456 7.15446 54.0115 10.5309 55.4999Z" fill="#3E3E3E"/>
<path d="M28.3908 36.6572L29.2614 35.4876L16.6419 31.1886L14.8364 33.6144L22.5659 44.4833L23.4471 43.2993L20.4076 39.0624L23.4491 34.976L28.3908 36.6572ZM19.644 37.978L15.9423 32.8219L16.1895 32.4898L22.2019 34.5414L19.644 37.978Z" fill="#3E3E3E"/>
<path d="M27.3582 14.1093L26.4308 14.8801C27.2707 15.8906 27.3158 16.6489 26.4299 17.3853C25.5439 18.1217 24.7928 17.9502 23.9529 16.9396L23.0255 17.7105C24.199 19.1225 25.8212 19.4126 27.1777 18.2851C28.5205 17.169 28.5318 15.5212 27.3582 14.1093ZM40.409 25.3335L32.2976 15.5744L30.0135 17.4729L32.9877 30.9636L32.6693 31.2282L32.1705 30.2619L25.0025 21.6379L23.8812 22.5698L31.9927 32.329L34.2767 30.4305L31.2887 16.9513L31.6071 16.6867L32.1059 17.653L39.2739 26.277L40.409 25.3335Z" fill="#3E3E3E"/>
<path d="M47.1968 6.92249L38.0398 11.5902L38.6121 12.7128L42.5571 10.7018L47.748 20.8851L49.0469 20.223L43.8561 10.0397L47.769 8.04506L47.1968 6.92249Z" fill="#3E3E3E"/>
<path d="M63.5759 11.261L64.7692 11.0858C64.6123 10.0173 65.0822 9.74818 65.5631 9.67761C66.8631 9.48679 68.2477 10.739 69.9573 10.4881C70.9547 10.3417 71.9595 9.50287 71.6955 7.70414L70.5023 7.87927C70.6591 8.94782 70.1918 9.23473 69.711 9.3053C68.4287 9.49351 67.0264 8.24391 65.3167 8.49485C64.3372 8.63861 63.3119 9.46223 63.5759 11.261Z" fill="#3E3E3E"/>
</svg>

<svg width="157" height="157" fill="none" xmlns="http://www.w3.org/2000/svg"><path d="M85.343 8.438c-.625 3.454 1.037 5.29 4.243 5.87 2.993.542 4.93-.553 5.333-2.785.346-1.913-.521-2.783-2.058-3.39l.074-.408c1.639.04 2.598-.609 2.873-2.132.346-1.913-.906-3.585-3.9-4.126-3.206-.58-5.228.59-5.731 3.372l1.452.262c.368-2.037 1.557-2.846 4.055-2.394 2.267.41 2.88 1.472 2.637 2.818-.244 1.346-1.082 1.835-2.588 1.562l-1.736-.313-.224 1.24 1.736.313c1.506.273 2.294 1.074 1.996 2.72-.304 1.684-1.428 2.432-3.695 2.022-2.497-.452-3.505-1.659-3.015-4.369l-1.452-.262zm21.325 11.06l1.345.563 1.13-13.284-2.789-1.167-8.685 10.122 1.361.57 3.379-3.972 4.7 1.967-.441 5.201zm-3.39-8.17l4.111-4.836.382.16-.541 6.33-3.952-1.654zm16.118 16.166l-1.002-8.895 5.757-1.736 1.781 1.254.726-1.03-1.766-1.244c-.471-.332-.93-.368-1.454-.187l-6.049 1.838-.383-.269 3.264-4.636-1.207-.85-7.305 10.376 1.206.85 3.296-4.68.324.228c.147.103.29.182.453.231l.902 7.724 1.457 1.026zm9.346 9.178l.986 1.073 6.58-11.595-2.046-2.226-12.121 5.564.998 1.087 4.73-2.195 3.447 3.75-2.574 4.542zm.335-8.84l5.757-2.674.28.305-3.138 5.524-2.899-3.155zm7.108 10.498c-3.043 1.749-3.376 4.203-1.753 7.028 1.516 2.637 3.601 3.411 5.567 2.281 1.686-.968 1.792-2.192 1.266-3.758l.359-.206c1.026 1.279 2.14 1.593 3.483.822 1.685-.97 2.156-3.004.64-5.642-1.624-2.824-3.823-3.616-6.273-2.208l.736 1.28c1.794-1.032 3.18-.644 4.444 1.556 1.148 1.998.731 3.15-.455 3.832-1.186.682-2.1.356-2.862-.97l-.879-1.53-1.092.628.879 1.53c.762 1.326.658 2.445-.794 3.279-1.482.852-2.778.476-3.926-1.522-1.265-2.2-.992-3.748 1.396-5.12l-.736-1.28zm5.256 23.43l.439 1.39 10.869-7.72-.911-2.883-13.337-.089.445 1.407 5.214.014 1.535 4.857-4.254 3.025zm4.045-7.866l6.347.013.125.395-5.181 3.676-1.291-4.084zM156.058 72.7l-1.289-10.196-1.25.158.555 4.393-11.34 1.432.183 1.447 11.34-1.433.551 4.358 1.25-.158zm.14 8.005l.117-1.47-12.649-1.013-.308 3.84c-.241 3.014.431 5 3.553 5.25 3.14.251 4.137-1.601 4.378-4.616l.19-2.368 4.719.377zm-11.394-.911l5.419.433-.19 2.369c-.178 2.225-.69 3.43-3.004 3.245-2.297-.184-2.593-1.454-2.415-3.679l.19-2.368zm1.644 20.938c-3.393-1.495-6.872-.608-8.374 2.801-1.307 2.965-.384 5.693 2.346 7.309l.595-1.351c-2.107-1.243-2.79-3.177-1.788-5.45 1.19-2.701 3.809-3.199 6.626-1.958 2.8 1.234 4.2 3.503 3.01 6.204-1.002 2.273-2.872 3.082-5.212 2.365l-.595 1.351c3.018.917 5.653-.243 6.96-3.208 1.502-3.409-.191-6.575-3.568-8.063zm-17.861 18.851l-.871 1.17 12.62 4.299 1.805-2.426-7.729-10.869-.882 1.184 3.04 4.237-3.042 4.086-4.941-1.681zm8.747-1.321l3.701 5.157-.247.332-6.012-2.052 2.558-3.437zm-7.639 23.823l.924-.774c-.844-1.008-.892-1.766-.009-2.506.883-.739 1.635-.571 2.479.436l.924-.774c-1.179-1.408-2.802-1.691-4.154-.558-1.338 1.121-1.343 2.769-.164 4.176zM116.6 130.913l8.15 9.727 2.276-1.908-3.027-13.479.317-.266.503.965 7.202 8.595 1.117-.936-8.15-9.727-2.276 1.907 3.041 13.468-.317.266-.503-.965-7.202-8.595-1.131.948zm-6.825 18.405l9.157-4.668-.572-1.123-3.945 2.011-5.191-10.183-1.299.662 5.191 10.184-3.913 1.994.572 1.123zm-16.365-4.345l-1.193.176c.157 1.068-.313 1.337-.794 1.408-1.3.191-2.685-1.061-4.395-.81-.997.147-2.002.986-1.737 2.784l1.193-.175c-.157-1.068.31-1.355.791-1.426 1.282-.189 2.685 1.061 4.394.81.98-.144 2.005-.968 1.74-2.767zm-21.79 2.829c.626-3.454-1.036-5.291-4.242-5.871-2.993-.542-4.929.552-5.333 2.784-.346 1.913.52 2.783 2.057 3.391l-.074.407c-1.639-.041-2.598.609-2.873 2.132-.347 1.913.906 3.585 3.899 4.127 3.206.58 5.229-.59 5.732-3.371l-1.452-.263c-.37 2.037-1.558 2.846-4.056 2.394-2.267-.41-2.88-1.473-2.636-2.819.244-1.346 1.082-1.834 2.588-1.562l1.736.314.224-1.239-1.736-.315c-1.505-.272-2.293-1.073-1.995-2.72.305-1.683 1.428-2.431 3.695-2.021 2.497.452 3.505 1.659 3.014 4.369l1.452.263zm-21.311-11.06l-1.345-.563-1.13 13.284 2.79 1.168 8.684-10.122-1.361-.57-3.38 3.971-4.699-1.966.44-5.202zm3.39 8.171l-4.111 4.835-.382-.16.541-6.329 3.952 1.654zm-16.117-16.166l1.001 8.894-5.757 1.736-1.78-1.253-.726 1.03 1.766 1.243c.47.332.93.369 1.453.187l6.05-1.838.383.269-3.265 4.636 1.207.85 7.306-10.376-1.207-.85-3.295 4.681-.324-.228a1.543 1.543 0 00-.454-.232l-.901-7.723-1.457-1.026zm-9.358-9.184l-.987-1.074-6.58 11.595 2.047 2.227 12.12-5.565-.998-1.087-4.73 2.196-3.447-3.751 2.575-4.541zm-.336 8.839l-5.756 2.674-.28-.305 3.137-5.523 2.9 3.154zm-7.03-10.512c3.041-1.753 3.372-4.208 1.745-7.03-1.52-2.636-3.606-3.407-5.57-2.274-1.685.97-1.79 2.194-1.261 3.76l-.359.206c-1.027-1.277-2.143-1.59-3.484-.817-1.684.971-2.152 3.006-.633 5.642 1.627 2.823 3.827 3.611 6.276 2.2l-.737-1.279c-1.794 1.034-3.18.649-4.447-1.55-1.15-1.996-.735-3.15.45-3.833 1.185-.683 2.1-.359 2.864.967l.88 1.528 1.092-.629-.88-1.528c-.765-1.326-.662-2.445.788-3.281 1.482-.854 2.778-.479 3.929 1.517 1.267 2.199.996 3.747-1.39 5.122l.738 1.279zm-5.253-23.442l-.44-1.39-10.87 7.718.91 2.883 13.337.093-.444-1.408-5.214-.014-1.534-4.858 4.255-3.024zm-4.048 7.866l-6.347-.015-.125-.395 5.182-3.675 1.29 4.085zM.92 83.54l1.288 10.197 1.25-.158-.555-4.393 11.34-1.433-.183-1.446-11.34 1.432-.55-4.357-1.25.158zm-.096-7.91l-.11 1.472 12.654.954.29-3.841c.226-3.016-.454-4.999-3.578-5.234-3.14-.237-4.13 1.62-4.356 4.636l-.179 2.37-4.72-.357zm11.398.86l-5.42-.41.178-2.368c.168-2.226.674-3.434 2.99-3.259 2.297.173 2.598 1.441 2.43 3.667l-.178 2.37zM10.53 55.5c3.394 1.496 6.873.61 8.376-2.8 1.307-2.964.385-5.692-2.345-7.309l-.595 1.351c2.107 1.244 2.789 3.177 1.787 5.45-1.19 2.701-3.81 3.199-6.627 1.957-2.8-1.234-4.2-3.503-3.008-6.205 1.002-2.273 2.873-3.08 5.212-2.364l.596-1.35c-3.019-.918-5.654.242-6.961 3.206-1.503 3.41.19 6.575 3.566 8.064zm17.86-18.843l.871-1.17-12.62-4.298-1.805 2.425 7.73 10.87.881-1.185-3.04-4.237 3.042-4.086 4.942 1.681zm-8.746 1.321l-3.702-5.156.247-.332 6.013 2.051-2.558 3.437zm7.714-23.868l-.927.77c.84 1.01.885 1.769-.001 2.505-.886.737-1.637.565-2.477-.445l-.927.77c1.173 1.412 2.795 1.703 4.152.575 1.342-1.116 1.354-2.764.18-4.176zM40.41 25.333l-8.111-9.76-2.285 1.899 2.975 13.49-.319.265-.498-.966-7.168-8.624-1.122.932 8.112 9.759 2.284-1.899L31.29 16.95l.318-.264.499.966 7.168 8.624 1.135-.944zm6.787-18.411L38.04 11.59l.572 1.123 3.945-2.011 5.191 10.183 1.299-.662-5.19-10.183 3.912-1.995-.572-1.123zm16.379 4.339l1.193-.175c-.157-1.069.313-1.338.794-1.408 1.3-.191 2.685 1.061 4.394.81.998-.146 2.003-.985 1.739-2.784l-1.194.175c.157 1.069-.31 1.356-.791 1.426-1.282.189-2.685-1.061-4.394-.81-.98.144-2.005.967-1.741 2.766z" fill="#3E3E3E"/></svg>
